svgs/light/wifi-slash.svg

<svg xmlns="http://www.w3.org/2000/svg" viewBox="0 0 640 512"><!--! Font Awesome Pro 6.3.0 by @fontawesome - https://fontawesome.com License - https://fontawesome.com/license (Commercial License) Copyright 2023 Fonticons, Inc. --><path d="M398.1 236.1c38.55 12.27 73.61 33.56 102.4 63.05C503.7 302.4 507.8 304 512 304c4.031 0 8.062-1.5 11.19-4.562c6.312-6.156 6.438-16.31 .25-22.62c-47.96-49.08-111.1-78.17-179.7-83.66L398.1 236.1zM320 64c111.9 0 218.5 44.84 292.4 123C615.5 190.3 619.8 192 624 192c3.938 0 7.906-1.438 11-4.375c6.406-6.062 6.688-16.19 .625-22.62C555.7 80.47 440.7 32 319.1 32C268.9 32 218.9 41.19 172.1 57.65l29.9 23.6C239.8 70.05 279.5 64 320 64zM4.369 165c-6.062 6.438-5.781 16.56 .625 22.62C11.43 193.7 21.53 193.4 27.62 187c14.73-15.57 31.06-29.42 48.17-42.26l-25.89-20.44C33.86 136.9 18.4 150.2 4.369 165zM116.6 276.8C110.4 283.1 110.5 293.3 116.8 299.4c6.375 6.219 16.5 6.031 22.62-.25c20.26-20.73 43.71-37.21 69.17-49.59l-27.66-21.84C157.5 240.8 135.8 257.2 116.6 276.8zM344.5 356.9c-7.559-3.141-15.84-4.925-24.54-4.925c-35.35 0-64 28.66-64 64.01s28.66 64.01 64 64.01s64-28.66 64-64.01c0-14.29-4.838-27.34-12.75-37.99L344.5 356.9zM320 448c-17.64 0-32-14.36-32-32s14.36-32 32-32s32 14.36 32 32S337.6 448 320 448zM25.92 3.422c-6.938-5.453-17-4.25-22.48 2.641c-5.469 6.938-4.281 17 2.641 22.48l608 480C617 510.9 620.5 512 623.1 512c4.734 0 9.422-2.094 12.58-6.078c5.469-6.938 4.281-17-2.641-22.48L25.92 3.422z"/></svg>

<svg xmlns="http://www.w3.org/2000/svg" viewBox="0 0 640 512"><!-- Font Awesome Pro 6.0.0-alpha2 by @fontawesome - https://fontawesome.com License - https://fontawesome.com/license (Commercial License) --><path d="M398.143 236.133C436.69 248.398 471.752 269.691 500.567 299.188C503.692 302.375 507.848 304 512.004 304C516.035 304 520.067 302.5 523.192 299.438C529.504 293.281 529.629 283.125 523.442 276.813C475.485 227.734 412.334 198.645 343.7 193.148L398.143 236.133ZM320 64C431.909 64 538.473 108.844 612.381 187C615.537 190.312 619.756 192 624.006 192C627.944 192 631.912 190.562 635.006 187.625C641.412 181.562 641.694 171.437 635.631 165C555.723 80.469 440.659 32 320 32C268.868 32 218.946 41.188 172.071 57.648L201.967 81.25C239.77 70.055 279.504 64 320 64ZM4.369 165C-1.693 171.438 -1.412 181.562 4.994 187.625C11.432 193.719 21.526 193.375 27.619 187C42.348 171.426 58.682 157.578 75.787 144.738L49.899 124.301C33.856 136.855 18.403 150.156 4.369 165ZM116.559 276.812C110.371 283.125 110.496 293.281 116.809 299.438C123.184 305.656 133.309 305.469 139.434 299.188C159.69 278.453 183.143 261.977 208.6 249.594L180.936 227.75C157.483 240.805 135.768 257.156 116.559 276.812ZM344.53 356.91C336.971 353.77 328.696 352 320 352C284.655 352 255.998 380.652 255.998 416S284.655 480 320 480S384.002 451.348 384.002 416C384.002 401.711 379.157 388.648 371.243 378L344.53 356.91ZM320 448C302.356 448 288 433.645 288 416S302.356 384 320 384S352 398.355 352 416S337.645 448 320 448ZM25.922 3.422C18.985 -2.031 8.922 -0.828 3.438 6.062C-2.031 13 -0.843 23.062 6.078 28.547L614.078 508.562C617.016 510.875 620.516 512 623.985 512C628.719 512 633.407 509.906 636.563 505.922C642.032 498.984 640.844 488.922 633.922 483.438L25.922 3.422Z"/></svg>
